X: 5
T:S
R:Jig
C:Trad
M:6/8
L:1/8
K:D
|:GEE BEE|GEE BAG|FDD ADD|dcd AGF|GEE BEE|
GEG B2c|dcd AGF|GEE E3::Bcd e2f|e2f edB|
Bcd e2f|edB d3|Bcd e2f|e2f edB|dcd AGF|GEE E3:|
